X: 3
T: Gammel Jes Sonnichsens stykke
R: S\onderhoning
Z: John Chambers <jc@trillian.mit.edu>
M: 2/4
L: 1/16
K: D
A2 \
| "D"d2d2 "A7"e2e2 | "D"f2{g}fe d2cd | "A7"e2e2 efec \
| "D"d2dA F2FG | "A7"A2A2 B2c2 | "D"d6 :: de | "D"f3f a2a2 |
| "A7"agfe "D"d2ef | "G"g2g2 "Em"g2b2 | "A7"e2ed c2cd \
| e2e2 efec | "D"d2dA F3G | "A7"A2A2 B2c2 | "D"d6 :|
